X: 35340
T: Rosewood
R: jig
M: 6/8
K: Amajor
|:e|agf efg|aed cBA|aga cde|fBB B2 e|
agf efg|aed cBA|def Bed|cAA A2:|
|:d|cde Ace|fdd def|^def Bdf|gee efg|
agf edc|fed cBA|def Bed|cAA A2:|

